flaticon/medical/premolar-2.svg

<svg xmlns="http://www.w3.org/2000/svg" width="32" height="32" viewBox="0 0 24 24">
    <path d="M 9.308594 7.449219 L 8.785156 7.617188 C 8.574219 7.683594 8.460938 7.90625 8.527344 8.117188 C 8.582031 8.289062 8.738281 8.398438 8.90625 8.398438 C 8.949219 8.398438 8.988281 8.390625 9.027344 8.378906 L 9.308594 8.289062 L 9.308594 9.851562 L 8.785156 10.015625 C 8.574219 10.082031 8.460938 10.308594 8.527344 10.519531 C 8.582031 10.691406 8.738281 10.796875 8.90625 10.796875 C 8.949219 10.796875 8.988281 10.792969 9.027344 10.78125 L 9.308594 10.691406 L 9.308594 12.253906 L 8.785156 12.417969 C 8.574219 12.484375 8.460938 12.710938 8.527344 12.921875 C 8.582031 13.089844 8.738281 13.199219 8.90625 13.199219 C 8.949219 13.199219 8.988281 13.191406 9.027344 13.179688 L 9.308594 13.089844 L 9.308594 14 L 10.109375 14 L 10.109375 15.332031 L 11.507812 17.199219 L 12.707031 17.199219 L 14.109375 15.332031 L 14.109375 14 L 14.910156 14 L 14.910156 11.351562 L 15.433594 11.175781 C 15.644531 11.109375 15.757812 10.882812 15.6875 10.671875 C 15.617188 10.460938 15.390625 10.347656 15.183594 10.417969 L 14.90625 10.507812 L 14.90625 8.953125 L 15.433594 8.777344 C 15.644531 8.707031 15.757812 8.480469 15.6875 8.269531 C 15.617188 8.0625 15.390625 7.949219 15.179688 8.019531 L 14.90625 8.109375 L 14.90625 6.550781 L 15.433594 6.375 C 15.601562 6.320312 15.703125 6.164062 15.703125 5.996094 L 22.292969 5.996094 L 22.25 5.558594 C 22.210938 5.148438 22.148438 4.964844 22.078125 4.75 C 22.042969 4.644531 22 4.527344 21.953125 4.351562 C 21.628906 3.113281 20.667969 1.933594 19.257812 1.023438 C 17.453125 -0.136719 14.933594 -0.328125 12.839844 0.539062 L 12.765625 0.570312 C 12.726562 0.585938 12.6875 0.601562 12.648438 0.617188 C 12.464844 0.679688 12.320312 0.738281 12.203125 0.78125 C 11.835938 0.925781 11.835938 0.925781 11.226562 0.746094 C 9.929688 0.363281 7.472656 -0.179688 5.59375 0.488281 C 3.292969 1.300781 2.027344 3.007812 1.824219 5.566406 L 1.789062 5.996094 L 9.308594 5.996094 Z M 2.667969 5.195312 C 2.941406 3.199219 3.988281 1.902344 5.859375 1.238281 C 7.585938 0.628906 10.03125 1.226562 11 1.511719 C 11.796875 1.75 11.921875 1.75 12.492188 1.527344 C 12.601562 1.484375 12.738281 1.433594 12.910156 1.371094 C 12.96875 1.351562 13.023438 1.328125 13.082031 1.304688 L 13.144531 1.277344 C 15.003906 0.507812 17.234375 0.671875 18.828125 1.699219 C 20.070312 2.496094 20.90625 3.511719 21.183594 4.558594 C 21.234375 4.753906 21.28125 4.886719 21.320312 5.003906 C 21.34375 5.074219 21.363281 5.132812 21.378906 5.195312 L 14.109375 5.195312 L 14.109375 5.976562 L 13.183594 6.285156 C 12.972656 6.355469 12.859375 6.582031 12.929688 6.789062 C 12.984375 6.957031 13.140625 7.0625 13.308594 7.0625 C 13.351562 7.0625 13.394531 7.058594 13.433594 7.042969 L 14.109375 6.820312 L 14.109375 8.375 L 13.183594 8.683594 C 12.972656 8.753906 12.859375 8.980469 12.929688 9.191406 C 12.984375 9.359375 13.140625 9.464844 13.308594 9.464844 C 13.351562 9.464844 13.394531 9.457031 13.433594 9.445312 L 14.109375 9.21875 L 14.109375 10.777344 L 13.183594 11.085938 C 12.972656 11.15625 12.859375 11.382812 12.929688 11.59375 C 12.984375 11.761719 13.140625 11.867188 13.308594 11.867188 C 13.351562 11.867188 13.394531 11.859375 13.4375 11.84375 L 14.109375 11.621094 L 14.109375 13.199219 L 13.308594 13.199219 L 13.308594 15.066406 L 12.308594 16.398438 L 11.910156 16.398438 L 10.910156 15.066406 L 10.910156 13.199219 L 10.109375 13.199219 L 10.109375 12.835938 L 11.832031 12.289062 C 12.039062 12.222656 12.15625 12 12.089844 11.789062 C 12.023438 11.578125 11.796875 11.460938 11.589844 11.527344 L 10.109375 11.996094 L 10.109375 10.4375 L 11.832031 9.890625 C 12.039062 9.824219 12.15625 9.597656 12.089844 9.386719 C 12.023438 9.175781 11.796875 9.058594 11.589844 9.128906 L 10.109375 9.597656 L 10.109375 8.035156 L 11.832031 7.492188 C 12.039062 7.421875 12.15625 7.199219 12.089844 6.988281 C 12.023438 6.777344 11.796875 6.660156 11.589844 6.726562 L 10.109375 7.199219 L 10.109375 5.195312 Z M 2.667969 5.195312"/>
    <path d="M 22.128906 7.597656 L 16.910156 7.597656 L 16.910156 8.398438 L 21.394531 8.398438 C 21.558594 10.875 20.945312 13.277344 20.351562 15.605469 C 20.167969 16.324219 19.976562 17.066406 19.8125 17.800781 L 19.695312 18.328125 C 19.382812 19.746094 19.0625 21.214844 18.335938 22.484375 C 18.09375 22.910156 17.84375 23.160156 17.679688 23.136719 C 17.496094 23.117188 16.988281 22.828125 16.25 20.554688 C 15.996094 19.773438 15.6875 18.777344 15.324219 17.59375 C 15.320312 17.578125 15.316406 17.558594 15.308594 17.542969 L 15.292969 17.488281 L 15.289062 17.492188 C 15.160156 17.183594 14.953125 17.167969 14.796875 17.214844 L 14.414062 17.328125 L 14.488281 17.585938 C 14.304688 18.089844 14.011719 18.679688 13.792969 19.121094 L 13.605469 19.496094 C 13.328125 20.070312 12.980469 20.789062 12.414062 20.957031 C 11.410156 21.257812 10.484375 19.59375 9.933594 18.597656 C 9.847656 18.445312 9.769531 18.308594 9.699219 18.1875 L 9.566406 17.96875 L 9.316406 17.988281 C 9.113281 18.003906 8.859375 18.023438 7.40625 21.746094 C 7.152344 22.40625 6.914062 22.933594 6.402344 23.191406 C 5.949219 23.078125 5.464844 21.898438 5.277344 21.441406 L 5.226562 21.324219 C 3.871094 18.046875 3.335938 14.367188 2.820312 10.808594 C 2.746094 10.308594 2.671875 9.808594 2.597656 9.3125 L 2.574219 9.144531 C 2.519531 8.789062 2.5 8.660156 2.507812 8.398438 L 7.308594 8.398438 L 7.308594 7.597656 L 1.765625 7.597656 L 1.734375 7.964844 C 1.683594 8.605469 1.699219 8.726562 1.78125 9.265625 L 1.808594 9.429688 C 1.882812 9.925781 1.953125 10.421875 2.027344 10.925781 C 2.550781 14.53125 3.09375 18.261719 4.488281 21.628906 L 4.535156 21.742188 C 4.882812 22.585938 5.460938 24 6.472656 24 L 6.550781 24 L 6.628906 23.96875 C 7.554688 23.574219 7.898438 22.6875 8.152344 22.039062 C 8.535156 21.0625 9.035156 19.890625 9.355469 19.207031 C 10.035156 20.417969 11.117188 22.175781 12.640625 21.722656 C 13.542969 21.457031 13.996094 20.523438 14.324219 19.847656 L 14.507812 19.476562 C 14.609375 19.269531 14.730469 19.027344 14.851562 18.773438 C 15.089844 19.554688 15.304688 20.234375 15.488281 20.800781 C 15.972656 22.289062 16.601562 23.828125 17.597656 23.929688 C 18.121094 23.984375 18.601562 23.632812 19.03125 22.878906 C 19.816406 21.507812 20.152344 19.976562 20.476562 18.496094 L 20.589844 17.976562 C 20.753906 17.253906 20.941406 16.515625 21.125 15.804688 C 21.765625 13.296875 22.429688 10.703125 22.160156 7.957031 Z M 22.128906 7.597656"/>
</svg>

<svg xmlns="http://www.w3.org/2000/svg" width="32" height="32" viewBox="0 0 24 24">
    <path d="M9.309 7.45l-.524.167a.396.396 0 0 0-.258.5.4.4 0 0 0 .5.262l.282-.09v1.563l-.524.164a.4.4 0 0 0 .121.78.412.412 0 0 0 .121-.015l.282-.09v1.563l-.524.164a.4.4 0 0 0 .242.762l.282-.09V14h.8v1.332l1.399 1.867h1.199l1.402-1.867V14h.801v-2.648l.524-.176a.395.395 0 0 0 .254-.504.398.398 0 0 0-.504-.254l-.278.09V8.953l.528-.176a.4.4 0 0 0 .254-.507.402.402 0 0 0-.508-.25l-.274.09V6.55l.528-.175a.394.394 0 0 0 .27-.379h6.589l-.043-.437c-.04-.41-.102-.594-.172-.809-.035-.105-.078-.223-.125-.398-.324-1.239-1.285-2.418-2.695-3.329C17.453-.137 14.934-.328 12.84.54l-.074.031-.118.047c-.183.063-.328.121-.445.164-.367.145-.367.145-.976-.035C9.93.363 7.473-.18 5.594.488c-2.301.813-3.567 2.52-3.77 5.078l-.035.43h7.52zM2.668 5.194c.273-1.996 1.32-3.293 3.191-3.957 1.727-.61 4.172-.011 5.141.274.797.238.922.238 1.492.015.11-.043.246-.093.418-.156.059-.02.113-.043.172-.066l.063-.028c1.859-.77 4.09-.605 5.683.422 1.242.797 2.078 1.813 2.356 2.86.05.195.097.328.136.445.024.07.043.129.059.191h-7.27v.782l-.925.308a.398.398 0 0 0 .125.777.336.336 0 0 0 .125-.019l.675-.223v1.555l-.925.309a.4.4 0 0 0 .25.761l.675-.226v1.558l-.925.309a.4.4 0 0 0 .125.781.375.375 0 0 0 .129-.023l.671-.223V13.2h-.8v1.867l-1 1.332h-.399l-1-1.332V13.2h-.8v-.363l1.722-.547a.4.4 0 0 0-.242-.762l-1.48.47v-1.56l1.722-.546a.403.403 0 0 0 .258-.504.394.394 0 0 0-.5-.258l-1.48.469V8.035l1.722-.543a.405.405 0 0 0 .258-.504.4.4 0 0 0-.5-.261l-1.48.472V5.195zm0 0"/>
    <path d="M22.129 7.598H16.91v.8h4.485c.164 2.477-.45 4.88-1.043 7.207-.184.72-.375 1.461-.54 2.196l-.117.527c-.312 1.418-.633 2.887-1.36 4.156-.241.426-.491.676-.655.653-.184-.02-.692-.309-1.43-2.582-.254-.782-.563-1.778-.926-2.961-.004-.016-.008-.035-.015-.051l-.016-.055-.004.004c-.129-.308-.336-.324-.492-.277l-.383.113.074.258c-.183.504-.476 1.094-.695 1.535l-.188.375c-.277.574-.625 1.293-1.19 1.461-1.005.3-1.93-1.363-2.481-2.36l-.235-.41-.133-.218-.25.02c-.203.015-.457.034-1.91 3.757-.254.66-.492 1.188-1.004 1.445-.453-.113-.937-1.293-1.125-1.75l-.05-.117C3.87 18.047 3.336 14.367 2.82 10.81l-.222-1.496-.024-.168c-.054-.356-.074-.485-.066-.747h4.8v-.8H1.767l-.032.367c-.05.64-.035.762.047 1.3l.028.165c.074.496.144.992.218 1.496.524 3.605 1.067 7.336 2.461 10.703l.047.113c.348.844.926 2.258 1.938 2.258h.078l.078-.031c.926-.395 1.27-1.282 1.523-1.93.383-.977.883-2.148 1.203-2.832.68 1.211 1.762 2.969 3.286 2.516.902-.266 1.355-1.2 1.683-1.875l.184-.371c.101-.207.222-.45.344-.704.238.782.453 1.461.636 2.028.485 1.488 1.114 3.027 2.11 3.129.523.054 1.004-.297 1.433-1.051.785-1.371 1.121-2.902 1.446-4.383l.113-.52c.164-.722.351-1.46.535-2.171.64-2.508 1.305-5.102 1.035-7.848zm0 0"/>
</svg>
